dist/img/polygonal/polygonal3.svg

<?xml version="1.0" encoding="UTF-8" standalone="yes"?>
<svg xmlns="http://www.w3.org/2000/svg" viewBox="0 0 50 50">
  <path d="M39.25 37.124v-6.928l-6 3.464zm0-8.66v-6.928l-6 3.464zm0-8.66v-6.928l-6 3.464zm-.5.866l-6-3.464v6.928zm0 8.66l-6-3.464v6.928zm-7 3.464v-6.928l-6 3.464zm0-8.66v-6.928l-6 3.464zm-.5.866l-6-3.464v6.928zm-7 3.464v-6.928l-6 3.464zm-7.5 4.33v-6.928l-6 3.464z"/>
</svg>

<?xml version="1.0" encoding="UTF-8" standalone="yes"?>
<svg xmlns="http://www.w3.org/2000/svg" viewBox="0 0 50 50">
  <path d="M39.25 37.124v-6.928l-6 3.464zM39.25 28.464v-6.928l-6 3.464zM39.25 19.804v-6.928l-6 3.464zM38.75 20.67l-6-3.464v6.928zM38.75 29.33l-6-3.464v6.928zM31.75 32.794v-6.928l-6 3.464zM31.75 24.134v-6.928l-6 3.464zM31.25 25l-6-3.464v6.928zM24.25 28.464v-6.928l-6 3.464zM16.75 32.794v-6.928l-6 3.464z"/>
</svg>
